X:1
T:L'automne
T:1- Allegro
T:VIVALDI
%%score 1 2
L:1/8
Q:1/4=70
M:4/4
K:D
V:1 treble nm="Violin 1"
V:2 treble nm="Violin 2"
V:1
 fffg !tenuto!f2 ufug | fffg !tenuto!f2 ufug | !tenuto!fe/f/ uguf !tenuto!e2 z2 | %3
!p! FFFG !tenuto!F2 uFuG | FFFG !tenuto!F2 uFuG | !tenuto!FE/F/ uGuF !tenuto!E2 z2 | %6
!f! fffa !tenuto!B2 uBuB | eeeg !tenuto!A2 uAud | fffg fffg | fffg !tenuto!fe/f/ ugue | %10
 !tenuto!f2 z2!p! FFFG | FFFG FFFG | !tenuto!FE/F/ uGuE !tenuto!F2 z2 | ddde !tenuto!d2 udue | %14
 ddde !tenuto!d2 udue | !tenuto!dc/d/ ueud !tenuto!c2 z2 |!p! fffg !tenuto!f2 ufug | %17
 fffg !tenuto!f2 ufug | !tenuto!fe/f/ uguf !tenuto!e2 z2 |!f! ffff !tenuto!g2 ufuf | %20
 ffff !tenuto!g2 ufuf | !tenuto!g2 ufuf fefg | !tenuto!f2 !tenuto!e2 !tenuto!d2 z2 | %23
!p! dAAA !tenuto!B2 uAuA | dAAA !tenuto!B2 uAuA | !tenuto!B2 uAuA !tenuto!dc/B/ uAuG | %26
 !tenuto!F2 !tenuto!E2 D!f!ddA | dddA dddA | dBGA !tenuto!d2 z2 |!p! FFFG FFFG | %30
 FFFG !tenuto!FE/F/ uGuE | F8 |] %32
V:2
!f!!f! DDDA, D2 DA, | DDDA, D2 DA, | DB,G,G, A,2 z2 |!p! DDDA, D2 DA, | DDDA, D2 DA, | %5
 DB,G,G, A,2 z2 |!f! DDDC B,2 B,B, | CCCB, A,2 A,A, | DDDA, DDDA, | DDDA, DB,G,A, | %10
 D2 z2!p! DDDA, | DDDA, DDDA, | DB,G,A, D2 z2 |!f!!f! fffg f2 fg | fffg f2 fg | fe/f/ gf e2 z2 | %16
!p! ddde d2 de | ddde d2 de | dc/d/ ed c2 z2 |!f! d'aaa b2 aa | d'aaa b2 aa | b2 aa d'c'/b/ ag | %22
 a2 g2 f2 z2 |!p! FFFF G2 FF | FFFF G2 FF | G2 FF FEFG | A2 G2 F!f!ffg | fffg fffg | %28
 fe/f/ ge f2 z2 |!p! DDDA, DDDA, | DDDA, DB,G,A, | D8 |] %32

